reader/components/icons/assets/share.svg

<svg viewBox="0 0 24 24" xmlns="http://www.w3.org/2000/svg">
  <path d="M19.0381 16.0674C18.0529 16.0674 17.1434 16.4463 16.436 17.0526L8.83182 12.7074C8.88234 12.48 8.90761 12.2274 8.90761 12C8.90761 11.7474 8.88234 11.52 8.83182 11.2926L16.436 6.94737C17.1434 7.55368 18.0529 7.93263 19.0381 7.93263C21.236 7.93263 23.0044 6.16421 23.0044 3.96632C23.0044 1.76842 21.236 0 19.0381 0C16.8402 0 15.0718 1.76842 15.0718 3.96632C15.0718 4.21895 15.0971 4.44632 15.1476 4.67368L7.5434 9.01895C6.83603 8.41263 5.92655 8.03368 4.94129 8.03368C2.7434 8.03368 0.974976 9.8021 0.974976 12C0.974976 14.1979 2.7434 15.9663 4.94129 15.9663C5.92655 15.9663 6.83603 15.5874 7.5434 14.9811L15.1476 19.3263C15.0971 19.5537 15.0718 19.8063 15.0718 20.0337C15.0718 22.2316 16.8402 24 19.0381 24C21.236 24 23.0044 22.2316 23.0044 20.0337C23.0044 17.8358 21.236 16.0674 19.0381 16.0674Z"/>
</svg>

<svg viewBox="0 0 24 24" xmlns="http://www.w3.org/2000/svg"><path d="M19.038 16.067c-.985 0-1.895.38-2.602.986l-7.604-4.346a3.368 3.368 0 000-1.414l7.604-4.346a4.002 4.002 0 002.602.986 3.957 3.957 0 003.966-3.967A3.957 3.957 0 0019.038 0a3.957 3.957 0 00-3.966 3.966c0 .253.025.48.076.708L7.543 9.019a4.002 4.002 0 00-2.602-.985A3.957 3.957 0 00.975 12a3.957 3.957 0 003.966 3.966c.986 0 1.895-.379 2.602-.985l7.605 4.345a3.37 3.37 0 00-.076.708A3.957 3.957 0 0019.038 24a3.957 3.957 0 003.966-3.966 3.957 3.957 0 00-3.966-3.967z"/></svg>
